X:1
T:James Gibb editions
T:Psalm 119, pt 7 (Becker) - Schütz
%%score [ ( 1 2 ) ( 3 4 ) ]
L:1/8
Q:1/4=98
M:2/2
K:C
V:1 treble nm="Sopran Alt"
V:2 treble 
V:3 bass nm="Tenor Bass"
V:4 bass 
V:1
"^Cornelius Becker\n(1561-1604)""^Psalm 119, part 7, SWV 223""^Heinrich Schütz\n(1585-1672)" D4 F4 | %1
w: ~Dir g'bührt|
w: wahr ist|
 A2 E4 G2 | F4 E4 | c4 d4- | d2 A2 c2 B2 | A8 :|[M:2/2] c4 A4 | A2 F4 D2 | E2 ^F2 G4 | C4 G4 | %10
w: al- lein die|Eh- re,|du bist|* all- zeit ge-|recht,|du hast|ge- bo- ten|hart und fest|dei- ne|
w: deins Wor- tes|Leh- re,|wir sind|* un- nüt- ze|Knecht,|||||
 G2 A4 G2 | ^F4 G4 | E4 A4- | A2 G2 F2 E2 | E8 |] %15
w: Wahr- heit und|Rech- te,|die du|* ver- kün- den|läßt.|
w: |||||
V:2
 A,4 D4 | C2 C4 D2 | D4 ^C4 | E4 F4- | F2 D2 E2 E2 | E8 :|[M:2/2] E4 D4 | D2 D4 A,2 | C2 C2 D4 | %9
 E4 E4 | E2 F4 D2 | D4 D4 | C4 C4- | C2 E2 D2 C2 | B,8 |] %15
V:3
 F,4 A,4 | F,2 G,4 _B,2 | A,4 A,4 | A,4 A,4- | A,2 F,2 A,2 ^G,2 | A,8 :| %6
[M:2/2]"^72. Angst, Not hat mich umfangen und Leiden ohne Zahl,\ndrum hat mein Herz Verlangen nach deinen Worten all.\nRecht ist dein Zeugnis allezeit, wenn du mich unterweisest,\nleb ich in Heiligkeit.\n\n73. Ich ruf aus Herzensgrunde, erhör mich, Herr mein Gott!\nIch hoff dein alle Stunden, halt mich an dein Gebot,\nich ruf zu dir, Herr, hilf du mir, daß ich treulich erfülle\ndein Zeugnis für und für.\n\n78. Von der Gottlosen G'schlechte das Heil ist fern und weit,\ndieweil sie deine Rechte achten zu keiner Zeit.\nGroß ist, Herr, dein Barmherzigkeit, tröst mich mit deinem Worte\nnach deiner Gütigkeit.\n\n80. Ich hab lieb dein Befehle, mit g'fällt dein Will und Rat,\nerquick, Herr, meine Seele durch deine große Gnad!\nDein Wort nichts denn die Wahrheit ist; die Rechte deiner Güte\nbleibt stets zu jeder Frist." A,4 F,4 | %7
 F,2 A,4 F,2 | G,2 A,2 !courtesy!=B,4 | G,4 C4 | C2 C4 B,2 | A,4 B,4 | G,4 (F,3 G, | %13
 A,2) C2 A,2 A,2 | ^G,8 |] %15
V:4
 D,4 D,4 | F,2 C,4 G,,2 | D,4 A,,4 | A,,4 D,4- | D,2 D,2 A,,2 E,2 | A,,8 :|[M:2/2] A,,4 D,4 | %7
 D,2 D,4 D,2 | C,2 A,,2 G,,4 | C,4 C,4 | C,2 F,4 G,2 | D,4 G,4 | C,4 F,4- | F,2 C,2 D,2 A,,2 | %14
 E,8 |] %15

